X: 2759
T: Banks Of The Ness
R: waltz
M: 3/4
K: Gmajor
|:z dc|B3 A Bd|G4 dc|B3 A Bd|E4- EG|
A3 B cd|B3 G FG|EF G2 A2|A3:|
|:AGF|E4 B2|B3 B AG|F4 B2|B4 GF|
E4 c2|c3 c dc|B3 A Bd|A3:|

